X: 23512
T: Liam's Favourite Book
R: hornpipe
M: 4/4
K: Dmajor
DE|:"D"(3FAF EF D2 FA|"G"BA Bc BA (3FGA|"D"d2 df ed cB|"A"A2 AB (3ABA (3GFE|
"D"(3FAF EF D2 FA|"G"B2 Bc BA F2|"D"d2 dA "G"B2 BG|1 "D"FA "A"EA "D"D2 DE:|2 FA EA D2 FA||
|:"Bmin"d2 (3dcB "F#min"cA (3FGA|"Bmin"de (3dcB "F#min"(3cdc A2|"Bmin"FB Bc dc dB|"A"(3cde Be A2 FA|
"Bmin"d2 (3dcB "F#min"cA (3FGA|"Bmin"dB (3dcB "F#min"(3cdc A2|"G"BD GA Bc dB|1 "D"(3ABA "A"(3GFE "D"D2 FA:|2 "D"(3ABA "A"(3GFE "D"D2 DE||

